X:1
T:Title
%%score 1 2 3
L:1/8
M:2/2
K:C
V:1 treble nm="Part_1"
V:2 treble-8 nm="Part_2"
V:3 bass nm="Part_3"
V:1
 C8 | E8 | G8 | A8 | E8 | C8 | D8 | E8 | F8 | D8 | C8 | F8 | C8 | D8- | D4 C4- | C4 B,4 | C8 || %17
 C8 | D8 | F8 | F8 | F8 | E4 F4- | F2 D2 D4- | D4 ^C4 | D8 | z8 | F8 | A8 | G8 | G8 | E8 | G8 | %33
 E8 | F8 | D8 | C4 F4- | F2 E2 E4- | E4 D4 | E8- | E8 | E8 || D8 | A8- | A4 B4 | c8 | A8 | G8 | %48
 A8 | G8 | E8 | F8 | E8 | D8 | C8 | D8 | E8 | F8 | D6 C2- | C2 C2 D4 | E8 || C8 | D8 | F8 | D8 | %65
 D8 | C8 | E8 | F8 | G8 | F8 | E8 | D8 | F8 | D8 | C6 D2 | E4 F4- | F2 E2 E4- | E4 D4 | E8- | E8 | %81
 E8 | E8 | E8 || D8- | D4 E4- | E4 F4 | G8 | G8 | A8 | G8 | A8 | G4 E4- | E2 C2 D4 | E8 | z8 | D8 | %97
 E4 F4 | G8 | G8 | A8 | G8 | A8 | G8 | G8 | F8 | A8 | G8 | F8 | A8 | G8 | G8 | F4 E4- | E4 D4 | %114
 E8 | z8 | G8 | E8 | F8 | D8 | C6 D2 | E4 F4- | F2 E2 E4- | E4 D4 | E8 |] %125
V:2
 c8- | c8 | B4 c4- | c2 A2 A4- | A4 A4- | A2 G2 E4 | F4 G4- | G4 A4- | A4 D4- | D2 F4 G2 | A8 | %11
 z4 A4- | A8 | F4 G4- | G2 F2 E4 | D8 | C8 || c8 | B4 d4- | d2 c2 B4 | A8 | D8 | A8 | F8 | E8 | %25
 D8- | D8 | z4 d4 | c4 A4 | B4 c4- | c2 B2 G4- | G4 c4 | B4 G4- | G4 A4- | A4 D4 | F4 G4 | A8 | %37
 G4 E4 | F8 | C8- | C8 | C8 || G8 | F4 D4 | F4 G4 | A8 | c4 d4 | e8 | c4 f4 | e4 c4- | c2 A2 c4 | %51
 A4 B4 | c8 | B4 G4 | A8 | D4 F4 | G4 A4- | A4 F4 | G8 | F8 | E8 || A8 | F4 D4- | D4 D4- | D4 F4- | %65
 F4 G4 | A8 | z4 A4- | A8 | B4 c4 | d8 | c4 A4 | B8 | A4 D4- | D2 E2 F2 G2 | A8 | G4 F4 | D4 E4 | %78
 F8 | C8- | C8 | C8 | C8 | C8 || G8- | G8 | A8 | G4 c4- | c2 G2 c4- | c4 d4 | B4 c4- | c4 F4 | %92
 G4 A4 | F8 | E4 G4- | G4 A4 | B8 | c4 A4 | B4 G4 | z4 c4- | c4 d4 | e4 c4- | c4 A4 | B4 c4- | %104
 c2 B2 G4 | A4 D4- | D4 d4 | B4 c4 | d4 A4- | A4 F4 | E4 C4- | C4 E4 | D4 E4 | F8 | C8- | C8 | %116
 z4 c4- | c2 B2 G4 | A4 D4- | D2 F4 G2 | A6 B2 | c4 A4- | A2 G2 E4 | F8 | E8 |] %125
V:3
 C,8- | C,8 | G,,4 C,4 | A,,8- | A,,8 | A,,8 | D,4 G,,4 | C,4 A,,4 | D,8 | _B,,8 | A,,8 | D,8 | %12
 A,,8 | D,4 G,,4- | G,,4 C,4 | G,,8 | G,8 || C,8 | G,8 | D,8- | D,8 | z4 D,4 | A,,4 D,4- | D,8 | %24
 A,,8 | A,4 F,4- | F,2 G,2 A,4 | D,8 | F,8 | E,4 C,4 | C,8- | C,8 | G,,8 | C,4 A,,4 | D,8 | _B,,8 | %36
 A,,8 | z8 | A,6 B,2 | C8 | A,8 | C8 || _B,6 G,2 | A,4 D4 | C4 B,4 | (3:2:2A,8 G,4 | F,8 | E,8 | %48
 F,8 | C,8 | C,8 | D,8 | A,,8 | B,,8 | A,,8 | z4 D,4 | C,4 A,,4 | D,8 | z4 G,4 | A,8 | B,8 || %61
 A,,8 | D,4 A,4- | A,4 F,4- | F,4 D,4- | D,4 _B,,4 | A,,8- | A,,8 | D,4 F,4 | E,8 | D,8 | %71
 A,,4 C,4 | G,,8 | D,4 _B,,4 | A,,6 B,,2 | C,8 | C,4 D,4 | A,4 G,4 | A,6 B,2 | C6 B,2 | G,4 A,4- | %81
 A,4 G,4 | E,8 | G,8 || G,,6 A,,2 | B,,4 C,4 | A,,4 D,4 | E,4 C,4 | C,8 | F,4 D,4 | E,4 C,4 | %91
 (3:2:2F,8 D,4 | E,4 C,4 | z4 D,4 | C,6 D,2 | E,4 F,4 | G,8 | C,4 D,4 | G,,8 | C,8 | F,8 | C,8 | %102
 F,8 | E,4 C,4- | C,2 D,2 E,4 | D,4 A,4- | A,4 D,4 | E,8 | D,8 | z4 A,4 | B,4 C4- | C2 B,2 G,4 | %112
 A,4 G,4 | A,6 B,2 | C4 G,4- | G,2 F,2 E,2 D,2 | E,4 C,4- | C,2 D,2 E,4 | D,8 | _B,,8 | A,,8- | %121
 A,,4 D,4- | D,4 G,4 | A,6 G,A, | B,8 |] %125

